X:1
T:Kristina Nilssons Vals
R:Vals
M:3/4
L:1/8
Z:Andy Davey 2018
K:Am
|:E2|E2A2A2 | A3 ^GAc | c2B2B2 | B3 BcB | B2A2A2 | A3 cBA | A2^G2G2 | ^G4 E2|
 E2A2A2 | A3 ^GAc | c2B2B2 |B4 d2 | cB ce dc | BA Bd cB | A^G Ac BG | A4 :|
|:E2|E2e2e2 | e3 efe | e2d2d2 | d3 ded | d2c2c2 | c3 edc | c2B2B2 |
 B4 E2 | E2A2A2 | A3 ^GAc | c2B2B2| B4 d2 | cB ce dc | BA Bd cB | A^G Ac BG | A4 :|

